public/images/case-studies/speakinc/feature3.svg

<svg width="64" height="64" viewBox="0 0 64 64" fill="none" xmlns="http://www.w3.org/2000/svg">
<path d="M42.7774 0.415966C42.5248 0.152836 42.1771 0.00315126 41.8126 0H13.2075C9.48747 0.00945378 6.47119 3.01838 6.45386 6.73845V57.2616C6.47119 60.9816 9.48747 63.9906 13.2075 64H50.7926C54.5127 63.9906 57.529 60.9816 57.5463 57.2616V16.1523C57.5405 15.7994 57.3992 15.4627 57.1508 15.2117L42.7774 0.415966ZM43.1597 4.67595L52.9917 14.7899H44.5017C43.7679 14.7973 43.1671 14.2085 43.1597 13.4748V4.67595ZM50.7926 61.3109H13.2075C10.9717 61.3036 9.15869 59.4974 9.14293 57.2616V6.73845C9.15869 4.50263 10.9717 2.69643 13.2075 2.68908H40.4707V13.4632C40.4733 15.6833 42.2748 17.4816 44.4953 17.479H54.8572V57.2616C54.8415 59.4974 53.0284 61.3036 50.7926 61.3109Z" fill="#FF6B00"/>
<path d="M44.761 52H16.239C15.5547 52 15 52.4477 15 53C15 53.5523 15.5547 54 16.239 54H44.761C45.4453 54 46 53.5523 46 53C46 52.4477 45.4453 52 44.761 52Z" fill="#7F8284"/>
<path d="M16.2039 47H32.7961C33.4611 47 34 46.5523 34 46C34 45.4477 33.4611 45 32.7961 45H16.2039C15.5389 45 15 45.4477 15 46C15 46.5523 15.5389 47 16.2039 47Z" fill="#7F8284"/>
<path d="M17.1931 39H33.7472C34.4072 39 35 38.3937 35 37.6732V36.024C34.9841 31.0231 31.2573 26.9832 26.6754 27.0001H24.2644C19.7109 26.9883 16.0107 31.0084 16 35.9791V37.6732C15.9972 38.3973 16.5293 38.9893 17.1931 39ZM18.3899 36.024C18.3927 32.4834 21.0207 29.6133 24.2644 29.6087H26.6754C29.9158 29.6087 32.6101 32.487 32.6101 36.024V36.3913H18.3899V36.024Z" fill="#7F8284"/>
<path d="M25.4997 25C29.0899 25 32 22.0899 32 18.4997C32 14.9101 29.0899 12 25.4997 12C21.9101 12 19 14.9101 19 18.4997C19 22.0899 21.9101 25 25.4997 25ZM25.4997 14.6099C27.6483 14.6099 29.3901 16.3512 29.3901 18.4997C29.3901 20.6483 27.6483 22.3901 25.4997 22.3901C23.3512 22.3901 21.6099 20.6483 21.6099 18.4997C21.6099 16.3512 23.3512 14.6099 25.4997 14.6099Z" fill="#7F8284"/>
</svg>

<svg xmlns="http://www.w3.org/2000/svg" width="64" height="64" fill="none" xmlns:v="https://vecta.io/nano"><path d="M42.777.416c-.253-.263-.6-.413-.965-.416H13.208a6.77 6.77 0 0 0-6.754 6.738v50.523A6.77 6.77 0 0 0 13.208 64h37.585a6.77 6.77 0 0 0 6.754-6.738V16.152a1.37 1.37 0 0 0-.396-.941L42.777.416zm.382 4.26l9.832 10.114h-8.49a1.33 1.33 0 0 1-1.342-1.315V4.676zm7.633 56.635H13.208a4.08 4.08 0 0 1-4.065-4.049V6.738a4.08 4.08 0 0 1 4.065-4.049h27.263v10.774a4.02 4.02 0 0 0 4.025 4.016h10.362v39.783a4.08 4.08 0 0 1-4.065 4.049z" fill="#ff6b00"/><path d="M44.761 52H16.239c-.684 0-1.239.448-1.239 1s.555 1 1.239 1h28.522c.684 0 1.239-.448 1.239-1s-.555-1-1.239-1zm-28.557-5h16.592c.665 0 1.204-.448 1.204-1s-.539-1-1.204-1H16.204c-.665 0-1.204.448-1.204 1s.539 1 1.204 1zm.989-8h16.554c.66 0 1.253-.606 1.253-1.327v-1.649c-.016-5.001-3.743-9.041-8.325-9.024h-2.411c-4.553-.012-8.254 4.008-8.264 8.979v1.694c-.003.724.529 1.316 1.193 1.327zm1.197-2.976c.003-3.541 2.631-6.411 5.874-6.415h2.411c3.24 0 5.935 2.878 5.935 6.415v.367H18.39v-.367zM25.5 25a6.5 6.5 0 1 0 0-13 6.5 6.5 0 1 0 0 13zm0-10.39a3.89 3.89 0 1 1 0 7.78 3.89 3.89 0 1 1 0-7.78z" fill="#7f8284"/></svg>
